figma/bookmark.svg

<svg xmlns="http://www.w3.org/2000/svg" width="24" height="24" fill="none" viewBox="0 0 24 24">
  <path fill="#000" d="M7 3h10c.5 0 1 0 1.5.5s.5 1 .5 1.5v16l-7-3-7 3V5c0-.5 0-1 .5-1.5S6.5 3 7 3Zm10 2H7v13l5-2 5 2V5Z"/>
</svg>

<svg width="24" height="24" viewBox="0 0 24 24" fill="none" xmlns="http://www.w3.org/2000/svg">
<path d="M7 3H17C17.5 3 18 3 18.5 3.5C19 4 19 4.5 19 5V21L12 18L5 21V5C5 4.5 5 4 5.5 3.5C6 3 6.5 3 7 3ZM17 5H7V18L12 16L17 18V5Z" fill="black"/>
</svg>
